images/zhuyin/07.svg

<svg width="50" height="50" viewBox="0 0 50 50" fill="none" xmlns="http://www.w3.org/2000/svg">
<path d="M25.5625 14.6562C25.9219 14.6562 26.3828 14.8438 26.9453 15.2188C27.7734 15.7969 28.1875 16.1797 28.1875 16.3672C28.1875 16.6641 27.9922 16.9219 27.6016 17.1406C27.0547 17.4688 26.2656 18.3672 25.2344 19.8359C24.3906 21.0547 23.9688 21.7031 23.9688 21.7812C23.9688 21.9688 24.0625 22.0625 24.25 22.0625C24.4531 22.0625 25.2422 21.9141 26.6172 21.6172C28.6016 21.0391 29.625 20.75 29.6875 20.75C30.0312 20.75 30.5547 21.0234 31.2578 21.5703C31.8359 21.9922 32.125 22.3125 32.125 22.5312C32.125 22.6719 32.0156 22.8594 31.7969 23.0938C31.5156 23.4844 31.2266 24.2891 30.9297 25.5078C30.2422 28.1641 29.4844 30.2188 28.6562 31.6719C28.1406 32.625 27.5078 33.375 26.7578 33.9219C26.0703 34.4531 25.4219 34.7188 24.8125 34.7188C24.4531 34.7188 24.2031 34.5781 24.0625 34.2969C23.8438 33.8438 23.3516 33.2891 22.5859 32.6328C21.9453 32.1016 21.625 31.7969 21.625 31.7188V31.625C21.6719 31.625 22.0391 31.7422 22.7266 31.9766C23.5391 32.2578 24.1094 32.3984 24.4375 32.3984C25.2188 32.3984 25.9766 31.9688 26.7109 31.1094C27.4766 30.2344 28.1484 28.8828 28.7266 27.0547C29.3047 25.2891 29.5938 23.9062 29.5938 22.9062C29.5938 22.6094 29.4062 22.4609 29.0312 22.4609C28.2188 22.4609 26.5859 22.7969 24.1328 23.4688C22.8984 23.8438 22.25 24.0312 22.1875 24.0312C22.0938 24.0312 21.875 23.8672 21.5312 23.5391C21.2188 23.2109 21.0625 22.9375 21.0625 22.7188C21.0625 22.25 21.2578 21.9609 21.6484 21.8516C22.1484 21.6797 22.8516 20.8047 23.7578 19.2266C24.4609 17.9609 24.8125 17.1562 24.8125 16.8125C24.8125 16.5156 24.6562 16.3672 24.3438 16.3672C24 16.3672 23.1094 16.5547 21.6719 16.9297C20.4219 17.2422 19.7188 17.3984 19.5625 17.3984C19.3438 17.3984 19.0078 17.2109 18.5547 16.8359C18.1016 16.4766 17.875 16.2188 17.875 16.0625C17.875 16 17.9375 15.9688 18.0625 15.9688C18.9375 15.9688 20.1562 15.8438 21.7188 15.5938C23.4062 15.2812 24.4688 15.0312 24.9062 14.8438C25.2188 14.7188 25.4375 14.6562 25.5625 14.6562Z" fill="#333333"/>
<path d="M26.9453 15.2188L27.2316 14.8087L27.2227 14.8027L26.9453 15.2188ZM27.6016 17.1406L27.3573 16.7044L27.3507 16.708L27.3443 16.7119L27.6016 17.1406ZM25.2344 19.8359L24.8252 19.5486L24.8233 19.5513L25.2344 19.8359ZM26.6172 21.6172L26.7227 22.1059L26.74 22.1022L26.757 22.0972L26.6172 21.6172ZM31.2578 21.5703L30.9508 21.965L30.9569 21.9697L30.9631 21.9742L31.2578 21.5703ZM31.7969 23.0938L31.4313 22.7526L31.4097 22.7758L31.3911 22.8016L31.7969 23.0938ZM30.9297 25.5078L31.4138 25.6331L31.4155 25.6261L30.9297 25.5078ZM28.6562 31.6719L28.2217 31.4242L28.2165 31.434L28.6562 31.6719ZM26.7578 33.9219L26.4631 33.5177L26.4521 33.5262L26.7578 33.9219ZM24.0625 34.2969L23.6122 34.5143L23.6153 34.5205L24.0625 34.2969ZM22.5859 32.6328L22.9114 32.2531L22.9051 32.2479L22.5859 32.6328ZM21.625 31.625V31.125H21.125V31.625H21.625ZM22.7266 31.9766L22.8901 31.5041L22.8879 31.5033L22.7266 31.9766ZM26.7109 31.1094L26.3346 30.7801L26.3308 30.7845L26.7109 31.1094ZM28.7266 27.0547L28.2514 26.8991L28.2498 26.9039L28.7266 27.0547ZM24.1328 23.4688L24.0007 22.9863L23.9875 22.9903L24.1328 23.4688ZM21.5312 23.5391L21.1692 23.8839L21.1774 23.8925L21.186 23.9007L21.5312 23.5391ZM21.6484 21.8516L21.7833 22.333L21.7972 22.3291L21.811 22.3244L21.6484 21.8516ZM23.7578 19.2266L24.1914 19.4756L24.1949 19.4694L23.7578 19.2266ZM21.6719 16.9297L21.7931 17.4148L21.7981 17.4135L21.6719 16.9297ZM18.5547 16.8359L18.8735 16.4507L18.8654 16.4442L18.5547 16.8359ZM21.7188 15.5938L21.7978 16.0876L21.8098 16.0854L21.7188 15.5938ZM24.9062 14.8438L24.7205 14.3794L24.7093 14.3842L24.9062 14.8438ZM25.5625 15.1562C25.7687 15.1562 26.126 15.2735 26.668 15.6348L27.2227 14.8027C26.6396 14.414 26.075 14.1562 25.5625 14.1562V15.1562ZM26.6591 15.6287C27.0666 15.9132 27.3554 16.1382 27.5375 16.3066C27.6294 16.3916 27.6807 16.4499 27.7053 16.4837C27.7418 16.5341 27.6875 16.4845 27.6875 16.3672H28.6875C28.6875 16.1561 28.5814 15.9884 28.5145 15.8962C28.4355 15.7874 28.3315 15.6787 28.2164 15.5723C27.9844 15.3579 27.6521 15.1024 27.2315 14.8088L26.6591 15.6287ZM27.6875 16.3672C27.6875 16.4012 27.6775 16.525 27.3573 16.7044L27.8459 17.5769C28.3069 17.3187 28.6875 16.927 28.6875 16.3672H27.6875ZM27.3443 16.7119C27.0032 16.9165 26.6282 17.2702 26.2239 17.7306C25.8131 18.1983 25.3466 18.806 24.8252 19.5486L25.6436 20.1233C26.1534 19.3971 26.597 18.8212 26.9753 18.3905C27.36 17.9524 27.653 17.6929 27.8588 17.5694L27.3443 16.7119ZM24.8233 19.5513C24.4007 20.1618 24.081 20.6333 23.866 20.9637C23.7591 21.128 23.6746 21.2628 23.6155 21.3647C23.5864 21.4147 23.559 21.4644 23.5374 21.5096C23.5268 21.5318 23.5137 21.561 23.5022 21.5935C23.4953 21.613 23.4688 21.6871 23.4688 21.7812H24.4688C24.4688 21.8657 24.4455 21.9255 24.4452 21.9263C24.4403 21.9401 24.4371 21.9462 24.4397 21.9408C24.4444 21.9308 24.4566 21.9076 24.4802 21.8668C24.5266 21.787 24.6003 21.6688 24.7043 21.509C24.9112 21.1909 25.2243 20.7288 25.6455 20.1205L24.8233 19.5513ZM23.4688 21.7812C23.4688 21.9521 23.5118 22.172 23.6855 22.3457C23.8592 22.5195 24.0792 22.5625 24.25 22.5625V21.5625C24.2333 21.5625 24.3127 21.5587 24.3926 21.6386C24.4726 21.7186 24.4688 21.7979 24.4688 21.7812H23.4688ZM24.25 22.5625C24.4087 22.5625 24.709 22.5136 25.0866 22.4426C25.4875 22.3671 26.0336 22.2547 26.7227 22.1059L26.5117 21.1284C25.8258 21.2765 25.2898 21.3868 24.9017 21.4598C24.7074 21.4963 24.5536 21.5229 24.4382 21.5402C24.3806 21.5488 24.3352 21.5547 24.3009 21.5583C24.264 21.5622 24.2496 21.5625 24.25 21.5625V22.5625ZM26.757 22.0972C27.7489 21.8083 28.4993 21.5919 29.009 21.448C29.2641 21.3759 29.457 21.3225 29.5891 21.2874C29.6555 21.2697 29.7035 21.2574 29.7351 21.2499C29.7513 21.246 29.7593 21.2443 29.7616 21.2439C29.7809 21.24 29.7407 21.25 29.6875 21.25V20.25C29.6265 20.25 29.5709 20.2622 29.5675 20.2629C29.5469 20.267 29.5246 20.272 29.5029 20.2772C29.4588 20.2877 29.4011 20.3026 29.3318 20.321C29.1924 20.3581 28.9937 20.4132 28.7371 20.4856C28.2234 20.6307 27.4699 20.848 26.4773 21.1371L26.757 22.0972ZM29.6875 21.25C29.7402 21.25 29.8716 21.2756 30.1064 21.3983C30.3318 21.516 30.6123 21.7017 30.9508 21.965L31.5648 21.1756C31.2002 20.8921 30.8674 20.6676 30.5694 20.5119C30.2808 20.3611 29.9786 20.25 29.6875 20.25V21.25ZM30.9631 21.9742C31.2399 22.1762 31.4256 22.3385 31.537 22.4619C31.6681 22.6072 31.625 22.6202 31.625 22.5312H32.625C32.625 22.2235 32.4374 21.967 32.2794 21.792C32.1017 21.5951 31.8538 21.3863 31.5525 21.1664L30.9631 21.9742ZM31.625 22.5312C31.625 22.4775 31.6434 22.47 31.6111 22.5254C31.5817 22.5758 31.5262 22.651 31.4313 22.7526L32.1624 23.4349C32.2863 23.3021 32.3949 23.1664 32.4749 23.0293C32.5519 22.8971 32.625 22.7257 32.625 22.5312H31.625ZM31.3911 22.8016C31.21 23.0532 31.0487 23.4033 30.8986 23.8212C30.746 24.2459 30.5948 24.7701 30.4439 25.3895L31.4155 25.6261C31.5615 25.0268 31.7032 24.5393 31.8397 24.1593C31.9787 23.7724 32.1025 23.5249 32.2026 23.3859L31.3911 22.8016ZM30.4456 25.3825C29.7631 28.0196 29.0186 30.0261 28.2218 31.4243L29.0907 31.9194C29.9501 30.4114 30.7213 28.3086 31.4137 25.6331L30.4456 25.3825ZM28.2165 31.434C27.7304 32.3325 27.1438 33.0216 26.4632 33.5179L27.0524 34.3259C27.8718 33.7284 28.5509 32.9175 29.096 31.9098L28.2165 31.434ZM26.4521 33.5262C25.8159 34.0178 25.2728 34.2188 24.8125 34.2188V35.2188C25.571 35.2188 26.3247 34.8884 27.0635 34.3175L26.4521 33.5262ZM24.8125 34.2188C24.6973 34.2188 24.6341 34.1963 24.6006 34.1775C24.571 34.1608 24.5399 34.1335 24.5097 34.0733L23.6153 34.5205C23.7258 34.7415 23.8899 34.9251 24.1103 35.0491C24.3268 35.1709 24.5683 35.2188 24.8125 35.2188V34.2188ZM24.5128 34.0795C24.2468 33.5286 23.6872 32.9183 22.9113 32.2532L22.2605 33.0124C23.0159 33.6599 23.4407 34.1589 23.6122 34.5142L24.5128 34.0795ZM22.9051 32.2479C22.5874 31.9844 22.3575 31.784 22.2098 31.6436C22.1348 31.5722 22.0906 31.5253 22.0685 31.499C22.0569 31.4851 22.0606 31.4877 22.0699 31.5033C22.0747 31.5114 22.0858 31.531 22.0967 31.56C22.1066 31.5863 22.125 31.6428 22.125 31.7188H21.125C21.125 31.8711 21.192 31.9835 21.2102 32.0141C21.2394 32.0633 21.2732 32.1067 21.3016 32.1407C21.3596 32.21 21.4355 32.2872 21.5206 32.3681C21.6933 32.5324 21.9439 32.7499 22.2668 33.0177L22.9051 32.2479ZM22.125 31.7188V31.625H21.125V31.7188H22.125ZM21.625 32.125C21.5655 32.125 21.5229 32.1126 21.5452 32.1177C21.5496 32.1187 21.5617 32.1217 21.5841 32.1281C21.6279 32.1405 21.6936 32.1605 21.7835 32.1892C21.9624 32.2463 22.2224 32.3329 22.5652 32.4498L22.8879 31.5033C22.5432 31.3858 22.2759 31.2967 22.0876 31.2366C21.9939 31.2067 21.916 31.1828 21.8564 31.1659C21.827 31.1575 21.7973 31.1496 21.77 31.1433C21.7605 31.1411 21.6962 31.125 21.625 31.125V32.125ZM22.563 32.4491C23.3694 32.7282 24.0143 32.8984 24.4375 32.8984V31.8984C24.2044 31.8984 23.7087 31.7874 22.8901 31.5041L22.563 32.4491ZM24.4375 32.8984C25.4209 32.8984 26.3053 32.3537 27.0911 31.4342L26.3308 30.7845C25.6478 31.5838 25.0166 31.8984 24.4375 31.8984V32.8984ZM27.0872 31.4386C27.9184 30.4887 28.6162 29.062 29.2033 27.2054L28.2498 26.9039C27.6807 28.7036 27.0347 29.9801 26.3346 30.7801L27.0872 31.4386ZM29.2017 27.2103C29.7848 25.4297 30.0938 23.9865 30.0938 22.9062H29.0938C29.0938 23.826 28.8246 25.1484 28.2514 26.8991L29.2017 27.2103ZM30.0938 22.9062C30.0938 22.6456 30.0056 22.3719 29.7635 22.1802C29.5436 22.0062 29.2713 21.9609 29.0312 21.9609V22.9609C29.0937 22.9609 29.1311 22.9673 29.1498 22.9722C29.1676 22.9769 29.1602 22.9781 29.1428 22.9643C29.1341 22.9574 29.1247 22.9482 29.1162 22.9369C29.1076 22.9256 29.1016 22.9146 29.0978 22.9055C29.0902 22.8874 29.0938 22.8838 29.0938 22.9062H30.0938ZM29.0312 21.9609C28.1396 21.9609 26.4404 22.3183 24.0007 22.9865L24.2649 23.951C26.7314 23.2754 28.2979 22.9609 29.0312 22.9609V21.9609ZM23.9875 22.9903C23.3709 23.1777 22.9027 23.3175 22.5818 23.4103C22.4209 23.4568 22.2999 23.4907 22.2167 23.5126C22.1747 23.5237 22.1463 23.5307 22.129 23.5346C22.0882 23.5437 22.129 23.5312 22.1875 23.5312V24.5312C22.2616 24.5312 22.3363 24.5129 22.3478 24.5103C22.3828 24.5025 22.4249 24.4919 22.4717 24.4796C22.5663 24.4546 22.6963 24.4182 22.8596 24.3709C23.1871 24.2762 23.6604 24.1348 24.2782 23.9472L23.9875 22.9903ZM22.1875 23.5312C22.2453 23.5312 22.2863 23.5432 22.3024 23.5485C22.3203 23.5544 22.3289 23.5592 22.3262 23.5578C22.3199 23.5545 22.2967 23.5409 22.2531 23.5082C22.167 23.4436 22.0428 23.3362 21.8765 23.1774L21.186 23.9007C21.3634 24.0701 21.5205 24.2088 21.6531 24.3082C21.7189 24.3576 21.7895 24.4055 21.8613 24.4432C21.9193 24.4736 22.0393 24.5312 22.1875 24.5312V23.5312ZM21.8933 23.1942C21.7539 23.0478 21.6653 22.9299 21.6138 22.8398C21.561 22.7474 21.5625 22.7111 21.5625 22.7188H20.5625C20.5625 22.9451 20.6421 23.1549 20.7456 23.336C20.8503 23.5193 20.9961 23.7022 21.1692 23.8839L21.8933 23.1942ZM21.5625 22.7188C21.5625 22.5506 21.5977 22.4682 21.6233 22.4303C21.644 22.3996 21.6824 22.3613 21.7833 22.333L21.5136 21.3701C21.2238 21.4512 20.9692 21.6121 20.7947 21.8705C20.625 22.1217 20.5625 22.4182 20.5625 22.7188H21.5625ZM21.811 22.3244C22.206 22.1886 22.5828 21.8247 22.9405 21.3796C23.3152 20.9134 23.7322 20.2751 24.1914 19.4756L23.3242 18.9776C22.8771 19.7561 22.4895 20.3444 22.161 20.7532C21.8156 21.1831 21.5909 21.3426 21.4859 21.3787L21.811 22.3244ZM24.1949 19.4694C24.5499 18.8303 24.8221 18.2972 25.007 17.874C25.0994 17.6625 25.1732 17.4712 25.2247 17.3031C25.274 17.1419 25.3125 16.9717 25.3125 16.8125H24.3125C24.3125 16.8252 24.307 16.8845 24.2685 17.0104C24.2321 17.1294 24.174 17.2828 24.0906 17.4737C23.924 17.8552 23.6688 18.3572 23.3207 18.9837L24.1949 19.4694ZM25.3125 16.8125C25.3125 16.5803 25.2501 16.3159 25.0397 16.116C24.8341 15.9207 24.5709 15.8672 24.3438 15.8672V16.8672C24.3838 16.8672 24.3993 16.8721 24.3979 16.8717C24.3944 16.8706 24.3741 16.863 24.3509 16.841C24.34 16.8306 24.3309 16.8192 24.3238 16.8081C24.3169 16.7972 24.3132 16.7883 24.3114 16.7832C24.3082 16.774 24.3125 16.7807 24.3125 16.8125H25.3125ZM24.3438 15.8672C24.1129 15.8672 23.7564 15.9256 23.315 16.0185C22.8586 16.1146 22.268 16.2575 21.5457 16.4459L21.7981 17.4135C22.5133 17.2269 23.0867 17.0885 23.521 16.9971C23.9702 16.9025 24.2309 16.8672 24.3438 16.8672V15.8672ZM21.5506 16.4446C20.9271 16.6005 20.4438 16.7164 20.0986 16.7932C19.9256 16.8316 19.7911 16.8593 19.6928 16.8772C19.5802 16.8977 19.5498 16.8984 19.5625 16.8984V17.8984C19.6533 17.8984 19.7694 17.8797 19.8717 17.8611C19.9882 17.8399 20.1369 17.809 20.3155 17.7693C20.6734 17.6898 21.1666 17.5714 21.7931 17.4148L21.5506 16.4446ZM19.5625 16.8984C19.5808 16.8984 19.5325 16.9006 19.3902 16.8212C19.2587 16.7479 19.0875 16.6279 18.8735 16.4507L18.2359 17.2211C18.475 17.419 18.6983 17.5803 18.9028 17.6944C19.0964 17.8025 19.3254 17.8984 19.5625 17.8984V16.8984ZM18.8654 16.4442C18.6487 16.2723 18.5052 16.1394 18.4205 16.043C18.3782 15.9949 18.3608 15.9673 18.3561 15.9587C18.3492 15.946 18.375 15.9856 18.375 16.0625H17.375C17.375 16.2175 17.4292 16.3479 17.4788 16.4387C17.5308 16.5337 17.5983 16.6223 17.6693 16.7031C17.8112 16.8645 18.0076 17.0402 18.244 17.2277L18.8654 16.4442ZM18.375 16.0625C18.375 16.1344 18.3556 16.2196 18.3027 16.2988C18.252 16.375 18.1892 16.4176 18.1455 16.4394C18.0723 16.476 18.0255 16.4688 18.0625 16.4688V15.4688C17.9745 15.4688 17.834 15.4771 17.6983 15.545C17.6233 15.5824 17.5371 15.6445 17.4707 15.7441C17.4022 15.8469 17.375 15.9594 17.375 16.0625H18.375ZM18.0625 16.4688C18.9771 16.4688 20.2264 16.3389 21.7977 16.0875L21.6398 15.1C20.0861 15.3486 18.8979 15.4688 18.0625 15.4688V16.4688ZM21.8098 16.0854C23.4805 15.776 24.6039 15.5173 25.1032 15.3033L24.7093 14.3842C24.3336 14.5452 23.332 14.7865 21.6277 15.1021L21.8098 16.0854ZM25.0919 15.308C25.2391 15.2491 25.3548 15.2088 25.442 15.1839C25.5369 15.1568 25.5699 15.1562 25.5625 15.1562V14.1562C25.4301 14.1562 25.2912 14.187 25.1673 14.2224C25.0358 14.2599 24.8859 14.3134 24.7206 14.3795L25.0919 15.308Z" fill="#333333"/>
</svg>

<svg xmlns="http://www.w3.org/2000/svg" width="50" height="50" fill="none"><path fill="#333" d="M25.563 14.656c.359 0 .82.188 1.382.563.828.578 1.242.96 1.242 1.148 0 .297-.195.555-.585.774-.547.328-1.336 1.226-2.368 2.695-.843 1.219-1.265 1.867-1.265 1.945 0 .188.093.282.281.282.203 0 .992-.149 2.367-.446 1.985-.578 3.008-.867 3.07-.867.344 0 .868.273 1.57.82.579.422.868.742.868.961 0 .14-.11.328-.328.563-.281.39-.57 1.195-.867 2.414-.688 2.656-1.446 4.71-2.274 6.164-.515.953-1.148 1.703-1.898 2.25-.688.531-1.336.797-1.945.797-.36 0-.61-.14-.75-.422-.22-.453-.711-1.008-1.477-1.664-.64-.531-.961-.836-.961-.914v-.094c.047 0 .414.117 1.102.352.812.28 1.382.421 1.71.421.782 0 1.54-.43 2.274-1.289.766-.875 1.437-2.226 2.016-4.054.578-1.766.867-3.149.867-4.149 0-.297-.188-.445-.563-.445-.812 0-2.445.336-4.898 1.008-1.235.375-1.883.562-1.945.562-.094 0-.313-.164-.657-.492-.312-.328-.468-.602-.468-.82 0-.469.195-.758.585-.867.5-.172 1.204-1.047 2.11-2.625.703-1.266 1.055-2.07 1.055-2.415 0-.296-.157-.445-.47-.445-.343 0-1.234.188-2.671.563-1.25.312-1.953.468-2.11.468-.218 0-.554-.187-1.007-.562-.453-.36-.68-.617-.68-.773 0-.063.063-.094.188-.094.875 0 2.093-.125 3.656-.375 1.687-.313 2.75-.563 3.187-.75.313-.125.532-.188.657-.188Z"/><path fill="#333" d="m26.945 15.219.287-.41-.01-.006-.277.416Zm.657 1.922-.245-.437-.006.004-.007.004.258.429Zm-2.368 2.695-.409-.287-.002.002.411.285Zm1.383 1.781.106.489.017-.004.017-.005-.14-.48Zm4.64-.047-.306.395.006.005.006.004.295-.404Zm.54 1.524-.366-.341-.021.023-.019.026.406.292Zm-.867 2.414.484.125.002-.007-.486-.118Zm-2.274 6.164-.434-.248-.006.01.44.238Zm-1.898 2.25-.295-.404-.01.008.305.396Zm-2.695.375-.45.217.002.006.448-.223Zm-1.477-1.664.325-.38-.006-.005-.32.385Zm-.961-1.008v-.5h-.5v.5h.5Zm1.102.352.163-.473h-.002l-.161.473Zm3.984-.868-.376-.329-.004.005.38.324Zm2.016-4.054-.476-.156-.001.005.477.15Zm-4.594-3.586L24 22.986l-.014.004.146.479Zm-2.602.07-.362.345.008.008.009.009.345-.362Zm.117-1.687.135.481.014-.004.014-.005-.163-.472Zm2.11-2.625.433.249.004-.007-.437-.242Zm-2.086-2.297.121.485.005-.002-.126-.483Zm-3.117-.094.319-.385-.009-.007-.31.392Zm3.164-1.242.079.494.012-.003-.091-.491Zm3.187-.75-.185-.465-.012.005.197.46Zm.657.312c.206 0 .563.117 1.105.479l.555-.832c-.583-.389-1.148-.647-1.66-.647v1Zm1.096.473c.408.284.696.51.879.678.091.085.143.143.167.177.037.05-.017 0-.017-.117h1a.815.815 0 0 0-.173-.47 2.293 2.293 0 0 0-.299-.325 9.647 9.647 0 0 0-.985-.763l-.572.82Zm1.029.738c0 .034-.01.158-.33.337l.488.873c.46-.258.841-.65.841-1.21h-1Zm-.344.345c-.34.204-.716.558-1.12 1.019-.41.467-.877 1.075-1.399 1.818l.819.574c.51-.726.953-1.302 1.331-1.733.385-.438.678-.697.884-.82l-.515-.858Zm-2.52 2.84a64.49 64.49 0 0 0-.958 1.412 9.81 9.81 0 0 0-.25.4c-.03.05-.057.1-.079.146a.87.87 0 0 0-.035.083c-.007.02-.033.094-.033.188h1c0 .085-.024.145-.024.145-.005.014-.008.02-.005.015.004-.01.017-.033.04-.074.047-.08.12-.198.224-.358.207-.318.52-.78.941-1.389l-.822-.569Zm-1.355 2.23c0 .17.043.39.216.564a.782.782 0 0 0 .565.216v-1c-.017 0 .063-.003.143.077.08.08.076.159.076.142h-1Zm.781.78c.159 0 .459-.048.837-.12.4-.075.947-.187 1.636-.336l-.211-.978c-.686.148-1.222.259-1.61.332a13.353 13.353 0 0 1-.601.098l-.051.005v1Zm2.507-.465a309.72 309.72 0 0 1 2.252-.649 41.426 41.426 0 0 1 .753-.204c.019-.004-.021.006-.075.006v-1c-.06 0-.116.012-.12.013l-.064.014c-.044.01-.102.026-.171.044-.14.037-.338.092-.595.165-.514.145-1.267.362-2.26.651l.28.96Zm2.93-.847c.053 0 .185.026.42.148.225.118.505.304.844.567l.614-.79a6.846 6.846 0 0 0-.996-.663c-.288-.15-.59-.262-.881-.262v1Zm1.276.724c.277.202.463.364.574.488.131.145.088.158.088.07h1c0-.308-.188-.565-.346-.74a4.828 4.828 0 0 0-.727-.626l-.589.808Zm.662.557c0-.053.018-.061-.014-.006a1.37 1.37 0 0 1-.18.228l.731.682a2.34 2.34 0 0 0 .313-.406.998.998 0 0 0 .15-.498h-1Zm-.234.27c-.181.252-.342.602-.492 1.02-.153.425-.304.95-.455 1.569l.972.236c.145-.6.287-1.087.424-1.467.139-.387.262-.634.363-.773l-.812-.584Zm-.945 2.582c-.683 2.637-1.427 4.643-2.224 6.041l.869.495c.86-1.508 1.63-3.61 2.323-6.286l-.968-.25Zm-2.23 6.051c-.486.899-1.072 1.588-1.753 2.084l.59.808c.819-.598 1.498-1.409 2.043-2.416l-.88-.476Zm-1.764 2.092c-.636.492-1.18.693-1.64.693v1c.759 0 1.513-.33 2.252-.901l-.612-.792Zm-1.64.693a.43.43 0 0 1-.211-.041.225.225 0 0 1-.091-.105l-.895.447c.11.221.275.405.495.53.217.12.458.169.703.169v-1Zm-.3-.14c-.265-.55-.825-1.16-1.6-1.826l-.651.76c.755.647 1.18 1.146 1.351 1.501l.9-.434Zm-1.607-1.831a14.767 14.767 0 0 1-.695-.604 2.017 2.017 0 0 1-.142-.145c-.011-.014-.007-.011.002.004a.45.45 0 0 1 .055.216h-1c0 .152.067.264.085.295.03.05.063.093.092.127.058.069.134.146.219.227.172.164.423.382.746.65l.638-.77Zm-.78-.53v-.093h-1v.094h1Zm-.5.407c-.06 0-.102-.012-.08-.007a45.073 45.073 0 0 1 1.02.332l.323-.947a46.32 46.32 0 0 0-.8-.266 7.82 7.82 0 0 0-.318-.094c-.01-.002-.074-.018-.145-.018v1Zm.938.324c.806.28 1.451.45 1.875.45v-1c-.234 0-.73-.112-1.548-.395l-.327.945Zm1.875.45c.983 0 1.867-.545 2.653-1.465l-.76-.65c-.683.8-1.314 1.114-1.893 1.114v1Zm2.65-1.46c.83-.95 1.528-2.377 2.115-4.234l-.953-.301c-.57 1.8-1.215 3.076-1.915 3.876l.752.659Zm2.114-4.229c.583-1.78.892-3.224.892-4.304h-1c0 .92-.27 2.242-.843 3.993l.95.311Zm.892-4.304a.898.898 0 0 0-.33-.726c-.22-.174-.493-.22-.733-.22v1c.063 0 .1.007.119.012.018.005.01.006-.007-.008a.152.152 0 0 1-.045-.058c-.008-.019-.004-.022-.004 0h1Zm-1.063-.945c-.891 0-2.59.357-5.03 1.026l.264.964c2.466-.676 4.033-.99 4.766-.99v-1Zm-5.043 1.03c-.617.187-1.085.326-1.406.42a17.137 17.137 0 0 1-.453.124c-.04.009 0-.004.058-.004v1c.075 0 .15-.018.16-.02l.125-.031a120.163 120.163 0 0 0 1.806-.532l-.29-.958Zm-1.8.54c.057 0 .098.012.114.018.018.005.027.01.024.009a.645.645 0 0 1-.073-.05 4.54 4.54 0 0 1-.377-.33l-.69.723c.177.17.334.308.467.407.066.05.137.098.208.135.058.03.178.088.326.088v-1Zm-.295-.337a1.942 1.942 0 0 1-.28-.354c-.052-.093-.05-.129-.05-.121h-1c0 .226.08.436.183.617.104.183.25.366.423.548l.724-.69Zm-.33-.475c0-.168.035-.25.06-.289.021-.03.06-.069.16-.097l-.27-.963a1.25 1.25 0 0 0-.718.5c-.17.252-.233.548-.233.849h1Zm.248-.395c.395-.135.772-.5 1.13-.944.374-.467.791-1.105 1.25-1.904l-.867-.498c-.447.778-.835 1.366-1.163 1.775-.345.43-.57.59-.675.626l.325.945Zm2.384-2.855c.355-.639.627-1.172.812-1.595.092-.211.166-.403.218-.57.049-.162.087-.332.087-.491h-1a.853.853 0 0 1-.044.197 4.466 4.466 0 0 1-.177.464 18.67 18.67 0 0 1-.77 1.51l.874.485Zm1.117-2.657c0-.232-.062-.496-.272-.696-.206-.195-.47-.249-.696-.249v1c.04 0 .055.005.054.005a.136.136 0 0 1-.047-.031.18.18 0 0 1-.04-.058c-.003-.009.002-.002.002.03h1Zm-.968-.945c-.231 0-.588.059-1.029.151-.456.097-1.047.24-1.77.428l.253.967a38.84 38.84 0 0 1 1.723-.416c.45-.095.71-.13.823-.13v-1Zm-2.793.578c-.624.155-1.107.271-1.452.348-.173.039-.308.066-.406.084-.113.02-.143.021-.13.021v1c.09 0 .206-.018.309-.037.116-.021.265-.052.444-.092.357-.08.85-.198 1.477-.354l-.242-.97Zm-1.988.453c.018 0-.03.003-.173-.077a3.629 3.629 0 0 1-.517-.37l-.637.77c.239.198.462.36.667.473.193.108.422.204.66.204v-1Zm-.698-.454a3.579 3.579 0 0 1-.444-.401.544.544 0 0 1-.065-.084c-.007-.013.019.027.019.104h-1c0 .155.054.285.104.376.052.095.12.183.19.264.142.162.339.337.575.525l.621-.784Zm-.49-.381a.427.427 0 0 1-.23.376c-.073.037-.12.03-.082.03v-1a.813.813 0 0 0-.365.076.572.572 0 0 0-.323.518h1Zm-.313.406c.915 0 2.164-.13 3.736-.382l-.158-.987c-1.554.249-2.742.369-3.578.369v1Zm3.748-.384c1.67-.309 2.794-.568 3.293-.782l-.394-.919c-.375.161-1.377.402-3.081.718l.182.983Zm3.282-.777c.147-.059.263-.1.35-.124.095-.027.128-.028.12-.028v-1c-.132 0-.27.031-.395.066a4.723 4.723 0 0 0-.446.158l.37.928Z"/></svg>
